!!!!SEGMENT: pl-kk--kk-i-8--016_anonim--exultet-orbis-gaudiis.krn
!!!cenid: 16xx:1157
!!!COM: Anonim
!!!COM-rismID: pe30004985
!!!CDT:
!!!CNT:
!!!OTL: Exultet orbis gaudiis
!!!PDT:
!!!AGN: Sacred
!!!SMS-siglum: PL-Kk
!!!SMS-shelfmark: Kk.I.8
!!!SMS-shelfwork: 016 W
!!!SMS-variant:
!!!SMS-altvar:
!!!NIFC-rismSourceID: 1001148105
!!!NIFC-rismChildID: 1001148788
!!!NIFC-islandoraID: pl-kk:2296
!!!URL-pdf-islandora: https://repozytorium.nifc.pl/islandora/object/pl-kk%3A2296/datastream/PDF/view
!!!URL-scan: https://polish.musicsources.pl/pl/lokalizacje/galeria/rekopisy/6141 @EN{Scan on Polish Music Sources Website} @PL{Skany w portalu Dziedzictwo Muzyki Polskiej w otwartym dostępie}
!!!IIIF:
!!!ONB-nifc: UWAGA: A (skan 0010), T1 (0034), T2 (0057), B (0080). Następny utwór: Aeterna Christi munera aspostolorum gloriam (druga pięciolinia)
!!!AIN: 1 alto 1 bass 2 tenor
!!!key:
**kern	**text	**text	**text	**text	**text	**text	**kern	**text	**text	**text	**text	**text	**text	**kern	**text	**text	**text	**text	**text	**text	**kern	**text	**text	**text	**text	**text	**text
*part4	*part4	*part4	*part4	*part4	*part4	*part4	*part3	*part3	*part3	*part3	*part3	*part3	*part3	*part2	*part2	*part2	*part2	*part2	*part2	*part2	*part1	*part1	*part1	*part1	*part1	*part1	*part1
*staff4	*staff4	*staff4	*staff4	*staff4	*staff4	*staff4	*staff3	*staff3	*staff3	*staff3	*staff3	*staff3	*staff3	*staff2	*staff2	*staff2	*staff2	*staff2	*staff2	*staff2	*staff1	*staff1	*staff1	*staff1	*staff1	*staff1	*staff1
*group1	*	*	*	*	*	*	*group1	*	*	*	*	*	*	*group1	*	*	*	*	*	*	*group1	*	*	*	*	*	*
*	*verse1	*verse2	*verse3	*verse4	*verse5	*verse6	*	*verse1	*verse2	*verse3	*verse4	*verse5	*verse6	*	*verse1	*verse2	*verse3	*verse4	*verse5	*verse6	*	*verse1	*verse2	*verse3	*verse4	*verse5	*verse6
*Ibass	*	*	*	*	*	*	*Itenor	*	*	*	*	*	*	*Itenor	*	*	*	*	*	*	*Ialto	*	*	*	*	*	*
*I"BASSVS.	*	*	*	*	*	*	*I"TENOR 2dus	*	*	*	*	*	*	*I"Tenore 1mo	*	*	*	*	*	*	*I"alto.	*	*	*	*	*	*
*I'B	*	*	*	*	*	*	*I'T 2	*	*	*	*	*	*	*I'T 1	*	*	*	*	*	*	*I'A	*	*	*	*	*	*
*clefF4	*	*	*	*	*	*	*clefC4	*	*	*	*	*	*	*clefC4	*	*	*	*	*	*	*clefC3	*	*	*	*	*	*
*k[b-]	*	*	*	*	*	*	*k[b-]	*	*	*	*	*	*	*k[b-]	*	*	*	*	*	*	*k[b-]	*	*	*	*	*	*
*g:	*	*	*	*	*	*	*g:	*	*	*	*	*	*	*g:	*	*	*	*	*	*	*g:	*	*	*	*	*	*
*M3/1	*	*	*	*	*	*	*M3/1	*	*	*	*	*	*	*M3/1	*	*	*	*	*	*	*M3/1	*	*	*	*	*	*
*all\right	*	*	*	*	*	*	*	*	*	*	*	*	*	*all\right	*	*	*	*	*	*	*	*	*	*	*	*	*
=1	=1	=1	=1	=1	=1	=1	=1	=1	=1	=1	=1	=1	=1	=1	=1	=1	=1	=1	=1	=1	=1	=1	=1	=1	=1	=1	=1
!	!	!	!	!	!	!	!LO:TX:a:t=De Apostolis	!	!	!	!	!	!	!LO:TX:a:t=De Apoſtolis	!	!	!	!	!	!	!	!	!	!	!	!	!
1G	E-	Vos	Qui	Prae-	Vt	Pa-	1B-	E-	Vos	Qui	Prae-	Vt	Pa-	1d	E-	Vos	Qui	Prae-	Vt	Pa-	1g	E-	Vos	Qui	Prae-	Ut	Pa-
1G	-xul-	Sae-	tem-	-cep-	cum	-tri	1B-	-xul-	Sae-	tem-	-ce-	cum	-tri	1d	-xul-	Sae-	tem-	-ce-	cum	-tri	1g	-xul-	Sae-	tem-	-ce-	cu(m)	-tri
1D	-tet	-cu-	-pla	-ta	re-	ſi-	1A	-tet	-cu-	-pla	-pta	re-	ſi-	1d	-tet	-cu-	-pla	-pta	re-	ſi-	1f	-tet	-cu-	-pla	-pta	re-	si-
=2	=2	=2	=2	=2	=2	=2	=2	=2	=2	=2	=2	=2	=2	=2	=2	=2	=2	=2	=2	=2	=2	=2	=2	=2	=2	=2	=2
*	*	*	*	*	*	*	*	*	*	*	*	*	*	*2\right	*	*	*	*	*	*	*	*	*	*	*	*	*
1.G	or-	-lo-	cae-	quo-	-di-	-mul-	1.B-	or-	-lo-	cae-	quo-	-di-	-mul-	2d\	or-	-lo-	cae-	quo-	-di-	-mul-	1g	or-	-lo-	Cae-	quo-	-di-	-mul-
.	.	.	.	.	.	.	.	.	.	.	.	.	.	2c\	.	.	.	.	.	.	.	.	.	.	.	.	.
.	.	.	.	.	.	.	.	.	.	.	.	.	.	0B-	.	.	.	.	.	.	2d\	.	.	.	.	.	.
!	!	!	!	!	!	!	!	!	!	!	!	!	!	!	!	!	!	!	!	!	!LO:SIC:v:s=2e-	!	!	!	!	!	!
4F\	.	.	.	.	.	.	4A/	.	.	.	.	.	.	.	.	.	.	.	.	.	2e\	.	.	.	.	.	.
!LO:SIC:v:s=4E-	!	!	!	!	!	!	!	!	!	!	!	!	!	!	!	!	!	!	!	!	!	!	!	!	!	!	!
4E\	.	.	.	.	.	.	4G/	.	.	.	.	.	.	.	.	.	.	.	.	.	.	.	.	.	.	.	.
1D	.	.	.	.	.	.	1F	.	.	.	.	.	.	.	.	.	.	.	.	.	1f	.	.	.	.	.	.
=3	=3	=3	=3	=3	=3	=3	=3	=3	=3	=3	=3	=3	=3	=3	=3	=3	=3	=3	=3	=3	=3	=3	=3	=3	=3	=3	=3
!	!	!	!	!	!	!	!	!	!	!	!	!	!	!LO:TX:a:t=P:problem=♭ above	!	!	!	!	!	!	!LO:TX:a:t=P:problem=♭ above	!	!	!	!	!	!
1E-X	-bis	-rum	-li	-rum	-bit	-q(ue)	1B-	-bis	-rum	-li	-rum	-bit	-q(ue)	1B-X	-bis	-rum	-li	-rum	-bit	-q(ue)	1g-X	-bis	-ru(m)	-li	-ru(m)	-bit	-q(ue)
!	!	!	!	!	!	!	!	!	!	!	!	!	!	!	!	!	!	!	!	!	!LO:TX:a:t=P:problem=♭ above	!	!	!	!	!	!
1.C	gau-	Ju-	clau-	pro-	ar-	Fi-	1.B-	gau-	Ju-	clau-	pro-	ar-	Fi-	1.c	gau-	Ju-	clau-	pro-	ar-	Fi-	1.e-X	gau-	Ju-	clau-	pro-	ar-	Fi-
*	*	*	*	*	*	*	*2\right	*	*	*	*	*	*	*	*	*	*	*	*	*	*	*	*	*	*	*	*
2C/	-di-	-di-	-di-	-ti-	-bi-	-li-	2A\	-di-	-di-	-di-	-ti-	-bi-	-li-	2c\	-di-	-di-	-di-	-ti-	-bi-	-li-	2e-\	-di-	-di-	-di-	-ti-	-bi-	-li-
=4	=4	=4	=4	=4	=4	=4	=4	=4	=4	=4	=4	=4	=4	=4	=4	=4	=4	=4	=4	=4	=4	=4	=4	=4	=4	=4	=4
0.BB-	-js	-ces	-tis	-nus	-ter	-o	0.B-	-js	-ces	-tis	-nus	-ter	-o	0.d	-js	-ces	-tis	-nus	-ter	-o	0.f	-js	-ces	-tis	-n(us)	-ter	-o
=5	=5	=5	=5	=5	=5	=5	=5	=5	=5	=5	=5	=5	=5	=5	=5	=5	=5	=5	=5	=5	=5	=5	=5	=5	=5	=5	=5
1BB-	cae-	et	ſe-	Lan-	in	Ti-	1B-	cae-	et	ſe-	Lan-	in	Ti-	1d	cae-	et	ſe-	Lan-	in	Ti-	1f	Cae-	et	ſe-	lan-	in	Ti-
1F	-lum	Ve-	-ras-	-guor	fi-	-bi-	1A	-lum	Ve-	-ras-	-guor	fi-	-bi-	1c	-lum	Ve-	-ras-	-guor	fi-	-bi-	1f	-lu(m)	ve-	-ras-	-gvor,	fi-	-bi-
1D	re-	-ra	-q(ue)	ſa-	-ne	-q(ue)	1B-	re-	-ra	-q(ue)	ſa-	-ne	-q(ue)	1d	re-	-ra	-q(ue)	ſa-	-ne	-q(ue)	1f	re-	-ra	-q(ue)	sa-	-ne	-q(ue)
=6	=6	=6	=6	=6	=6	=6	=6	=6	=6	=6	=6	=6	=6	=6	=6	=6	=6	=6	=6	=6	=6	=6	=6	=6	=6	=6	=6
!	!	!	!	!	!	!	!	!	!	!	!	!	!	!LO:TX:a:t=P:problem=♭ above	!	!	!	!	!	!	!	!	!	!	!	!	!
1.G	-ſul-	mun-	Ver-	-lus-	Chri-	ſan-	(0G	-ſul-	mun-	Ver-	-lus-	Chri-	ſan-	(2B-X\	-ſul-	mun-	Ver-	-lus-	Chri-	ſan-	1.g	-ſul-	Mun-	ver-	-lus-	Xs-	S[an]-
.	.	.	.	.	.	.	.	.	.	.	.	.	.	2A\	.	.	.	.	.	.	.	.	.	.	.	.	.
.	.	.	.	.	.	.	.	.	.	.	.	.	.	2B-\	.	.	.	.	.	.	.	.	.	.	.	.	.
*2\right	*	*	*	*	*	*	*	*	*	*	*	*	*	*	*	*	*	*	*	*	*	*	*	*	*	*	*
2A\	.	.	.	.	.	.	.	.	.	.	.	.	.	2c\)	.	.	.	.	.	.	4f\	.	.	.	.	.	.
.	.	.	.	.	.	.	.	.	.	.	.	.	.	.	.	.	.	.	.	.	4e\	.	.	.	.	.	.
1B-	.	.	.	.	.	.	1F)	.	.	.	.	.	.	1d	.	.	.	.	.	.	2d\	.	.	.	.	.	.
.	.	.	.	.	.	.	.	.	.	.	.	.	.	.	.	.	.	.	.	.	2e\	.	.	.	.	.	.
=7	=7	=7	=7	=7	=7	=7	=7	=7	=7	=7	=7	=7	=7	=7	=7	=7	=7	=7	=7	=7	=7	=7	=7	=7	=7	=7	=7
1F	-tet	di	-bo	-que	-ſtus	-cte	1A	-tet	di	-bo	-que	-ſtus	-cte	1d	-tet	di	-bo	-que	-ſtus	-cte	1f	-tet	di	-bo	-q(ue)	-tus	-cte
1.A	lau-	lu-	ſol-	ſen-	ſae-	ſpi-	1.A	lau-	lu-	ſol-	ſen-	ſae-	ſpi-	1.d	lau-	lu-	ſol-	ſen-	ſae-	ſpi-	1.f	lau-	lu-	ſol-	sen-	ſae-	Spi-
2A\	-di-	-mi-	-ui-	-ti-	-cu-	ri-	2A/	-di-	-mi-	-ui-	-ti-	-cu-	ri-	2c#X\	-di-	-mi-	-ui-	-ti-	-cu-	ri-	2e\	-di-	-mi-	-vi-	-ti-	-cu-	ri-
=8	=8	=8	=8	=8	=8	=8	=8	=8	=8	=8	=8	=8	=8	=8	=8	=8	=8	=8	=8	=8	=8	=8	=8	=8	=8	=8	=8
!LO:TX:t=P:problem=kreska taktowa początek repetycji	!	!	!	!	!	!	!LO:TX:t=P:problem=kreska taktowa początek repetycji	!	!	!	!	!	!	!LO:TX:t=P:problem=kreska taktowa początek repetycji	!	!	!	!	!	!	!LO:TX:a:t=P:problem=♯ above	!	!	!	!	!	!
0.D	-bus	-na	-tis	-unt	-li	-tus	0.A	-bus	-na	-tis	-unt	-li	-tus	0.d	-bus	-na	-tis	-unt	-li	-tus	0.f#X	-b(us)	-na	-tis,	-unt:	-li,	-t(us),
=9	=9	=9	=9	=9	=9	=9	=9	=9	=9	=9	=9	=9	=9	=9	=9	=9	=9	=9	=9	=9	=9	=9	=9	=9	=9	=9	=9
!	!	!	!	!	!	!	!	!	!	!	!	!	!	!	!	!	!	!	!	!	!LO:N:acc=-	!	!	!	!	!	!
!	!	!	!	!	!	!	!	!	!	!	!	!	!	!	!	!	!	!	!	!	!LO:TX:a:t=P:problem=♭ above	!	!	!	!	!	!
1D	A-	Vo-	Nos	Sa-	Nos	Si-	1A	A-	Vo-	Nos	Sa-	Nos	Si-	1d	A-	Vo-	Nos	Sa-	Nos	Si-	1fn	a-	Vo-	nos	sa-	nos	si-
1D	-po-	-tis	â	-na-	ſem-	-cut	1A	-po-	-tis	â	-na-	ſem-	-cut	1d	-po-	-tis	â	-na-	ſem-	-cut	1f	-po-	-tis	à	-na-	sem-	-cut
1E	-sto-	prae-	re-	-te	-pi-	fu-	1G	-ſto-	prae-	re-	-te	-pi-	fu-	2c\	-ſto-	prae-	re-	-te	-pi-	fu-	2e\	-ſto-	prae-	re-	-te	-pi-	fu-
.	.	.	.	.	.	.	.	.	.	.	.	.	.	2B-\	.	.	.	.	.	.	2d\	.	.	.	.	.	.
=10	=10	=10	=10	=10	=10	=10	=10	=10	=10	=10	=10	=10	=10	=10	=10	=10	=10	=10	=10	=10	=10	=10	=10	=10	=10	=10	=10
1.F	-lo-	-ca-	-a-	men-	-ter-	-it	2A/	-lo-	-ca-	-a-	men-	-ter-	-it	1.A	-lo-	-ca-	-a-	men-	-ter-	-it	1.c	-lo-	-ca-	-a-	men-	-ter-	-it
.	.	.	.	.	.	.	2G/	.	.	.	.	.	.	.	.	.	.	.	.	.	.	.	.	.	.	.	.
.	.	.	.	.	.	.	1.F	.	.	.	.	.	.	.	.	.	.	.	.	.	.	.	.	.	.	.	.
2F\	.	.	.	.	.	.	.	.	.	.	.	.	.	2G/	.	.	.	.	.	.	2B-/	.	.	.	.	.	.
2E-X\	.	.	.	.	.	.	.	.	.	.	.	.	.	2A/	.	.	.	.	.	.	2c/	.	.	.	.	.	.
2D\	.	.	.	.	.	.	2F/	.	.	.	.	.	.	2B-/	.	.	.	.	.	.	2d\	.	.	.	.	.	.
=11	=11	=11	=11	=11	=11	=11	=11	=11	=11	=11	=11	=11	=11	=11	=11	=11	=11	=11	=11	=11	=11	=11	=11	=11	=11	=11	=11
!	!	!	!	!	!	!	!	!	!	!	!	!	!	!	!	!	!	!	!	!	!LO:SIC:v:s=1.e-	!	!	!	!	!	!
1.C	.	.	.	.	.	.	2G/	.	.	.	.	.	.	1.c	.	.	.	.	.	.	1.e	.	.	.	.	.	.
.	.	.	.	.	.	.	4A/	.	.	.	.	.	.	.	.	.	.	.	.	.	.	.	.	.	.	.	.
.	.	.	.	.	.	.	4B-/	.	.	.	.	.	.	.	.	.	.	.	.	.	.	.	.	.	.	.	.
.	.	.	.	.	.	.	1c	.	.	.	.	.	.	.	.	.	.	.	.	.	.	.	.	.	.	.	.
2D/	.	.	.	.	.	.	.	.	.	.	.	.	.	4B-\	.	.	.	.	.	.	2f\	.	.	.	.	.	.
.	.	.	.	.	.	.	.	.	.	.	.	.	.	4A\	.	.	.	.	.	.	.	.	.	.	.	.	.
1E-X	.	.	.	.	.	.	1B-	.	.	.	.	.	.	1G	.	.	.	.	.	.	1g	.	.	.	.	.	.
=12	=12	=12	=12	=12	=12	=12	=12	=12	=12	=12	=12	=12	=12	=12	=12	=12	=12	=12	=12	=12	=12	=12	=12	=12	=12	=12	=12
!	!	!	!	!	!	!	!	!	!	!	!	!	!	!	!	!	!	!	!	!	!LO:SIC:v:s=1e-	!	!	!	!	!	!
1C	rum	-mur	-tu	-tes	-ni	Sit	1c,<	rum	-mur	-tu	-tes	-ni	Sit	1c	rum	-mur	-tu	-tes	-ni	Sit	1e	ru(m)	-mur	-tu	-tes	-ni	Sit
1.G	glo-	cor-	no-	lan-	gau-	iu-	1.d	glo-	cor-	no-	lan-	gau-	iu-	1.c	glo-	cor-	no-	lan-	gau-	iu-	1.d	glo-	Cor-	no-	lan-	gau-	ju-
!	!	!	!	!	!	!	!	!	!	!	!	!	!	!LO:N:acc=#	!	!	!	!	!	!	!	!	!	!	!	!	!
2G\	-ri-	-di-	-xi-	-gui-	-di-	-gi-	2G/	-ri-	-di-	-xi-	-gui-	-di-	-gi-	2Bn\	-ri-	-di-	-xi-	-gui-	-di-	-gi-	2d\	-ri-	-di-	-xi-	-gui-	-di-	-gi-
=13	=13	=13	=13	=13	=13	=13	=13	=13	=13	=13	=13	=13	=13	=13	=13	=13	=13	=13	=13	=13	=13	=13	=13	=13	=13	=13	=13
0.C	-am	-um	-os	-das	-j	-ter	0.G	-am	-um	-os	-das	-j	-ter	0.c	-am	-um	-os	-das	-j	-ter	0.e	-am	-um,	-os,	-das	-j	-ter
=14	=14	=14	=14	=14	=14	=14	=14	=14	=14	=14	=14	=14	=14	=14	=14	=14	=14	=14	=14	=14	=14	=14	=14	=14	=14	=14	=14
1C	tel-	au-	ſol-	au-	con-	ſae-	1G	tel-	au-	ſol-	au-	con-	ſae-	1c	tel-	au-	Sol-	au-	con-	ſae-	1e	tel-	au-	sol-	au-	con-	sae-
1BB-	-lus	-di-	-ui	-ge-	-ce-	-clum	1G	-lus	-di-	-ui	-ge-	-ce-	-clum	1d	-lus	-di-	-ui	-ge-	-ce-	-clum	1e	-lus	-di-	-ui	-ge-	-ce-	-clu(m)
!	!	!	!	!	!	!	!	!	!	!	!	!	!	!	!	!	!	!	!	!	!LO:TX:a:t=P:problem=♯ above	!	!	!	!	!	!
1AA	[et]	-te	iu-	-te	-dat	per	1A	et	-te	iu-	-te	-dat	per	1c	et	-te	iu-	-te	-dat	per	1f#X	et	-te	ju-	-te	-dat	p[er]
=15	=15	=15	=15	=15	=15	=15	=15	=15	=15	=15	=15	=15	=15	=15	=15	=15	=15	=15	=15	=15	=15	=15	=15	=15	=15	=15	=15
0GG	a-	vo-	-be-	nos	eſ-	om-	0B-	a-	Vo-	-be-	nos	eſ-	om-	0d	a-	Vo-	-be-	nos	eſ-	om-	0g	a-	vo-	-be-	nos	eſ-	om-
*	*	*	*	*ij	*	*	*	*	*	*	*ij	*	*	*	*	*	*	*ij	*	*	*	*	*	*	*ij	*	*
1GG	-ſtra	-ces	-te	au-	-se	-ne	1B-	-ſtra	-ces	-te	au-	-se	-ne	1d	-ſtra	-ces	-te	au-	-se	-ne	1g	-ſtra	-ces	-te	au-	-se	-ne
=16	=16	=16	=16	=16	=16	=16	=16	=16	=16	=16	=16	=16	=16	=16	=16	=16	=16	=16	=16	=16	=16	=16	=16	=16	=16	=16	=16
*	*ij	*ij	*ij	*	*ij	*ij	*	*ij	*ij	*ij	*	*ij	*ij	*	*ij	*ij	*ij	*	*ij	*ij	*	*ij	*ij	*ij	*	*ij	*ij
!	!	!	!	!	!	!	!	!	!	!	!	!	!	!LO:TX:a:t=P:problem=♭ above	!	!	!	!	!	!	!	!	!	!	!	!	!
1G	tel-	au-	sol-	-ge-	con-	ſae-	1G	tel-	au-	sol-	-ge-	con-	ſae-	1B-X	tel-	au-	Sol-	-ge-	con-	ſae-	1d	tel-	au-	sol-	-ge-	con-	ſae-
1F	-lus	-di-	-ui	-te	-ce-	-clum	1A	-lus	-di-	-ui	-te	-ce-	-clum	1B-	-lus	-di-	-ui	-te	-ce-	-clum	1d	-lus	-di-	-ui	-te	-ce-	-clum
!	!	!	!	!	!	!	!	!	!	!	!	!	!	!	!	!	!	!	!	!	!LO:TX:a:t=P:problem=♭ above	!	!	!	!	!	!
1E-X	et	-te	iu-	nos	-dat	per	1G	et	-te	iu-	nos	-dat	per	1c	et	-te	iu-	nos	-dat	per	1e-X	et	-te	ju-	nos	-dat	per
=17	=17	=17	=17	=17	=17	=17	=17	=17	=17	=17	=17	=17	=17	=17	=17	=17	=17	=17	=17	=17	=17	=17	=17	=17	=17	=17	=17
!	!	!	!	!	!	!	!	!	!	!	!	!	!	!	!	!	!	!	!	!	!LO:TX:a:t=P:problem=♯ above	!	!	!	!	!	!
1D	a-	vo-	-be-	au-	eſ-	om-	1A	a-	Vo-	-be-	au-	eſ-	om-	1d	a-	Vo-	-be-	au-	eſ-	om-	1f#X	a-	vo-	-be-	au-	eſ-	om-
1D	-ſtra	.	-te	-ge-	.	-ne	1A	-ſtra	.	-te	-ge-	.	-ne	1A	-ſtra	.	-te	-ge-	.	-ne	1d	-ſtra	.	-te	-ge-	.	-ne/
*	*Xij	*	*Xij	*	*	*	*	*Xij	*	*Xij	*	*	*	*	*Xij	*	*Xij	*	*	*Xij	*	*	*	*	*	*	*
1BB-	et	-ces	iu-	-te	-se	per	1G	et	-ces	iu-	-te	-se	per	1B-	et	-ces	iu-	-te	-se	per	1g	et	-ces	iu-	-te	-se	per
*	*	*	*	*	*	*	*	*	*Xij	*	*	*	*	*	*	*Xij	*	*	*Xij	*	*	*	*	*	*	*	*
=18	=18	=18	=18	=18	=18	=18	=18	=18	=18	=18	=18	=18	=18	=18	=18	=18	=18	=18	=18	=18	=18	=18	=18	=18	=18	=18	=18
!	!	!	!	!	!	!	!	!	!	!	!	!	!	!	!	!	!	!	!	!	!LO:SIC:v:s=1.e-	!	!	!	!	!	!
1.C	a-	vo-	-be-	nos	eſ-	om-	0.G	a-	Vo-	-be-	nos	eſ-	om-	2G/	a-	Vo-	-be-	nos	eſ-	o(m-	1.e	a-	vo-	-be-	nos	eſ-	om-
*	*	*	*	*Xij	*	*	*	*	*	*	*Xij	*	*	*	*	*	*	*Xij	*	*	*	*	*	*	*Xij	*	*
.	.	.	.	.	.	.	.	.	.	.	.	.	.	4A/	.	.	.	.	.	.	.	.	.	.	.	.	.
.	.	.	.	.	.	.	.	.	.	.	.	.	.	4B-/	.	.	.	.	.	.	.	.	.	.	.	.	.
.	.	.	.	.	.	.	.	.	.	.	.	.	.	0c	.	.	.	.	.	.	.	.	.	.	.	.	.
2D/	.	.	.	.	.	.	.	.	.	.	.	.	.	.	.	.	.	.	.	.	2f\	.	.	.	.	.	.
!LO:TX:a:t=P:problem=♭ above	!	!	!	!	!	!	!	!	!	!	!	!	!	!	!	!	!	!	!	!	!	!	!	!	!	!	!
1E-X	.	.	.	.	.	.	.	.	.	.	.	.	.	.	.	.	.	.	.	.	1g	.	.	.	.	.	.
=19	=19	=19	=19	=19	=19	=19	=19	=19	=19	=19	=19	=19	=19	=19	=19	=19	=19	=19	=19	=19	=19	=19	=19	=19	=19	=19	=19
1BB-	-ſtra	-ces	-te	Vir-	-se	-ne	1d	-ſtra	-ces	-te	Vir-	-se	-ne	1B-	-ſtra	-ces	-te	Vir-	-se	-n)e	1g	-ſtra	-ces	-te	Vir-	-se	-ne
*	*	*Xij	*	*	*Xij	*Xij	*	*	*	*	*	*Xij	*Xij	*	*	*	*	*	*	*	*	*Xij	*Xij	*Xij	*	*Xij	*Xij
1.D	con-	ſup-	qae-	-tu-	com-	glo-	1.d	con-	ſup-	qae-	-tu-	com-	glo-	1.A	Con-	ſup-	quae-	-tu-	com-	glo-	1.g	Con-	Sup-	qae-	-tu-	com-	glo-
!	!	!	!	!	!	!	!	!	!	!	!	!	!	!	!	!	!	!	!	!	!LO:SIC:v:s=2f#	!	!	!	!	!	!
2D/	-ci-	-pli-	-ſu-	-ti-	-po-	-ri-	2d\	-ci-	-pli-	-su-	-ti-	-po-	-ri-	2A\	-ci-	pli-	-ſu-	-ti-	-po-	-ri-	2f\	-ci-	-[p]li-	-ſu-	-ti-	-po-	-ri-
=20-	=20	=20	=20	=20	=20	=20	=20	=20	=20	=20	=20	=20	=20	=20-	=20	=20	=20	=20	=20	=20	=20-	=20	=20	=20	=20	=20	=20
!	!	!	!	!	!	!	!	!	!	!	!	!	!	!LO:TX:a:t=P:problem=♮ above	!	!	!	!	!	!	!	!	!	!	!	!	!
!	!	!	!	!	!	!	!	!	!	!	!	!	!	!LO:TX:a:t=P:problem=♯ above	!	!	!	!	!	!	!	!	!	!	!	!	!
0.GGl;	-nunt	-cum	-mus	-bus	-tes	-a	0.dl;<	-nunt	-cum	-mus.	-bus	-tes	-a	0.Bnl	-nunt	-cu(m)	-mus	-bus	-tes	-a	0.gl;;	-nunt	-cu(m)	-mus	-bus	-tes	-a
==	==	==	==	==	==	==	==	==	==	==	==	==	==	==	==	==	==	==	==	==	==	==	==	==	==	==	==
*-	*-	*-	*-	*-	*-	*-	*-	*-	*-	*-	*-	*-	*-	*-	*-	*-	*-	*-	*-	*-	*-	*-	*-	*-	*-	*-	*-
!!!system-decoration: [g1]
!!!RDF**kern: > = above
!!!RDF**kern: < = below
!!!RDF**kern: l = terminal long
!!!ENC: Andrzej Kubiczek
!!!END: 2021-04-08
!!!ENC: Krzysztof Stępień
!!!END: 2021-03-30
!!!YEC: Copyright 2022 Narodowy Instytut Fryderyka Chopina (https://polishscores.org)
!!!YEM: License CC-BY-4.0 (https://creativecommons.org/licenses/by/4.0)
